svgs/light/ramp-loading.svg

<svg xmlns="http://www.w3.org/2000/svg" viewBox="0 0 384 512"><!--! Font Awesome Pro 6.0.0-alpha3 by @fontawesome - https://fontawesome.com License - https://fontawesome.com/license (Commercial License) --><path d="M292.4 328.8C289.7 323.4 284.2 320 278.1 320H105.9c-6.061 0-11.6 3.424-14.31 8.844l-80 160C6.254 499.5 13.99 512 25.88 512h332.2c11.89 0 19.63-12.51 14.31-23.15L292.4 328.8zM51.78 480l64-128h152.4l64 128H51.78zM336 0h-288C21.53 0 0 21.53 0 48v288c0 17.08 9.188 33.02 24 41.56c7.594 4.438 17.41 1.859 21.84-5.828C50.28 364.1 47.66 354.3 40 349.9C35.06 347 32 341.7 32 336v-288C32 39.17 39.19 32 48 32h288C344.8 32 352 39.17 352 48v288c0 5.703-3.062 11.02-8 13.88c-7.656 4.422-10.28 14.2-5.844 21.86C341.1 376.9 346.5 379.7 352 379.7c2.719 0 5.5-.6875 8-2.156C374.8 369 384 353.1 384 336v-288C384 21.53 362.5 0 336 0z"/></svg>

<svg xmlns="http://www.w3.org/2000/svg" viewBox="0 0 384 512"><!-- Font Awesome Pro 6.0.0-alpha2 by @fontawesome - https://fontawesome.com License - https://fontawesome.com/license (Commercial License) --><path d="M292.422 328.844C289.713 323.424 284.172 320 278.111 320H105.889C99.828 320 94.287 323.424 91.578 328.844L11.578 488.844C6.258 499.482 13.994 512 25.889 512H358.111C370.006 512 377.742 499.482 372.422 488.844L292.422 328.844ZM51.777 480L115.777 352H268.223L332.223 480H51.777ZM336 0H48C21.531 0 0 21.531 0 48V336C0 353.078 9.188 369.016 24 377.562C31.594 382 41.406 379.422 45.844 371.734C50.281 364.078 47.656 354.297 40 349.875C35.062 347.016 32 341.703 32 336V48C32 39.172 39.188 32 48 32H336C344.812 32 352 39.172 352 48V336C352 341.703 348.938 347.016 344 349.875C336.344 354.297 333.719 364.078 338.156 371.734C341.125 376.859 346.5 379.719 352 379.719C354.719 379.719 357.5 379.031 360 377.562C374.812 369.016 384 353.078 384 336V48C384 21.531 362.469 0 336 0Z"/></svg>
